Adwaita++-Dark/actions/22/zoom-next.svg

<svg height="22" viewBox="0 0 22 22" width="22" xmlns="http://www.w3.org/2000/svg">
  <path d="m3.21875 2c-.6699 0-1.21875.5248-1.21875 1.1875v3.8125h2v-3h3v-2zm5.78125 0v2h3v3h2v-3.8125c0-.6627-.54875-1.1875-1.21875-1.1875zm-1 3v2h-3v2h3v2l3-3zm-6 4v3.8125c0 .663.54895 1.1875 1.21875 1.1875h3.78125v-2h-3v-3zm10 0v3h-3v2h3.78125c.67 0 1.21875-.5245 1.21875-1.1875v-3.8125z" fill="#e6ddff" transform="translate(3 3)"/>
</svg>

<svg xmlns="http://www.w3.org/2000/svg" width="22" height="22" viewBox="0 0 22 22">
 <defs>
  <style id="current-color-scheme" type="text/css">
   .ColorScheme-Text { color:#E6DDFF; } .ColorScheme-Highlight { color:#4285f4; }
  </style>
 </defs>
 <path style="fill:currentColor" class="ColorScheme-Text" d="M 3.21875 2 C 2.54885 2 2 2.5248 2 3.1875 L 2 7 L 4 7 L 4 4 L 7 4 L 7 2 L 3.21875 2 z M 9 2 L 9 4 L 12 4 L 12 7 L 14 7 L 14 3.1875 C 14 2.5248 13.45125 2 12.78125 2 L 9 2 z M 8 5 L 8 7 L 5 7 L 5 9 L 8 9 L 8 11 L 11 8 L 8 5 z M 2 9 L 2 12.8125 C 2 13.4755 2.54895 14 3.21875 14 L 7 14 L 7 12 L 4 12 L 4 9 L 2 9 z M 12 9 L 12 12 L 9 12 L 9 14 L 12.78125 14 C 13.45125 14 14 13.4755 14 12.8125 L 14 9 L 12 9 z" transform="translate(3 3)"/>
</svg>
